images/3233778.svg

<?xml version="1.0" encoding="UTF-8"?>
<svg xmlns="http://www.w3.org/2000/svg" xmlns:xlink="http://www.w3.org/1999/xlink" width="300pt" height="300pt" viewBox="0 0 300 300" version="1.1">
<defs>
<g>
<symbol overflow="visible" id="glyph0-0">
<path style="stroke:none;" d="M 0.59375 2.125 L 0.59375 -8.46875 L 6.59375 -8.46875 L 6.59375 2.125 Z M 1.265625 1.453125 L 5.9375 1.453125 L 5.9375 -7.78125 L 1.265625 -7.78125 Z M 1.265625 1.453125 "/>
</symbol>
<symbol overflow="visible" id="glyph0-1">
<path style="stroke:none;" d="M 4.734375 -7.953125 C 3.867188 -7.953125 3.179688 -7.628906 2.671875 -6.984375 C 2.171875 -6.347656 1.921875 -5.472656 1.921875 -4.359375 C 1.921875 -3.265625 2.171875 -2.394531 2.671875 -1.75 C 3.179688 -1.113281 3.867188 -0.796875 4.734375 -0.796875 C 5.585938 -0.796875 6.265625 -1.113281 6.765625 -1.75 C 7.273438 -2.394531 7.53125 -3.265625 7.53125 -4.359375 C 7.53125 -5.472656 7.273438 -6.347656 6.765625 -6.984375 C 6.265625 -7.628906 5.585938 -7.953125 4.734375 -7.953125 Z M 4.734375 -8.90625 C 5.953125 -8.90625 6.925781 -8.492188 7.65625 -7.671875 C 8.394531 -6.847656 8.765625 -5.742188 8.765625 -4.359375 C 8.765625 -2.984375 8.394531 -1.882812 7.65625 -1.0625 C 6.925781 -0.238281 5.953125 0.171875 4.734375 0.171875 C 3.503906 0.171875 2.519531 -0.238281 1.78125 -1.0625 C 1.039062 -1.882812 0.671875 -2.984375 0.671875 -4.359375 C 0.671875 -5.742188 1.039062 -6.847656 1.78125 -7.671875 C 2.519531 -8.492188 3.503906 -8.90625 4.734375 -8.90625 Z M 4.734375 -8.90625 "/>
</symbol>
<symbol overflow="visible" id="glyph0-2">
<path style="stroke:none;" d="M 1.171875 -8.75 L 2.765625 -8.75 L 6.65625 -1.4375 L 6.65625 -8.75 L 7.796875 -8.75 L 7.796875 0 L 6.203125 0 L 2.328125 -7.3125 L 2.328125 0 L 1.171875 0 Z M 1.171875 -8.75 "/>
</symbol>
<symbol overflow="visible" id="glyph0-3">
<path style="stroke:none;" d="M 7.734375 -8.078125 L 7.734375 -6.828125 C 7.328125 -7.203125 6.898438 -7.476562 6.453125 -7.65625 C 6.003906 -7.84375 5.523438 -7.9375 5.015625 -7.9375 C 4.015625 -7.9375 3.25 -7.628906 2.71875 -7.015625 C 2.1875 -6.398438 1.921875 -5.515625 1.921875 -4.359375 C 1.921875 -3.210938 2.1875 -2.332031 2.71875 -1.71875 C 3.25 -1.101562 4.015625 -0.796875 5.015625 -0.796875 C 5.523438 -0.796875 6.003906 -0.890625 6.453125 -1.078125 C 6.898438 -1.265625 7.328125 -1.539062 7.734375 -1.90625 L 7.734375 -0.671875 C 7.316406 -0.390625 6.875 -0.175781 6.40625 -0.03125 C 5.945312 0.101562 5.460938 0.171875 4.953125 0.171875 C 3.617188 0.171875 2.570312 -0.234375 1.8125 -1.046875 C 1.050781 -1.859375 0.671875 -2.960938 0.671875 -4.359375 C 0.671875 -5.765625 1.050781 -6.875 1.8125 -7.6875 C 2.570312 -8.5 3.617188 -8.90625 4.953125 -8.90625 C 5.472656 -8.90625 5.960938 -8.832031 6.421875 -8.6875 C 6.890625 -8.550781 7.328125 -8.347656 7.734375 -8.078125 Z M 7.734375 -8.078125 "/>
</symbol>
<symbol overflow="visible" id="glyph0-4">
<path style="stroke:none;" d="M 1.125 -9.125 L 2.203125 -9.125 L 2.203125 0 L 1.125 0 Z M 1.125 -9.125 "/>
</symbol>
</g>
</defs>
<g id="surface37873">
<rect x="0" y="0" width="300" height="300" style="fill:rgb(100%,100%,100%);fill-opacity:1;stroke:none;"/>
<path style="fill:none;stroke-width:1.2;stroke-linecap:butt;stroke-linejoin:miter;stroke:rgb(0%,0%,0%);stroke-opacity:1;stroke-miterlimit:10;" d="M 109.386719 73.460938 L 99.167969 83.75 "/>
<path style="fill:none;stroke-width:1.2;stroke-linecap:butt;stroke-linejoin:miter;stroke:rgb(100%,0%,0%);stroke-opacity:1;stroke-miterlimit:10;" d="M 99.167969 83.75 L 88.953125 94.035156 "/>
<path style="fill:none;stroke-width:1.2;stroke-linecap:butt;stroke-linejoin:miter;stroke:rgb(100%,0%,0%);stroke-opacity:1;stroke-miterlimit:10;" d="M 88.953125 94.035156 L 92.75 108.027344 "/>
<path style="fill:none;stroke-width:1.2;stroke-linecap:butt;stroke-linejoin:miter;stroke:rgb(0%,0%,0%);stroke-opacity:1;stroke-miterlimit:10;" d="M 92.75 108.027344 L 96.550781 122.019531 "/>
<path style=" stroke:none;fill-rule:nonzero;fill:rgb(100%,100%,100%);fill-opacity:1;" d="M 83.953125 87.035156 L 93.953125 87.035156 L 93.953125 101.035156 L 83.953125 101.035156 Z M 83.953125 87.035156 "/>
<g style="fill:rgb(100%,0%,0%);fill-opacity:1;">
  <use xlink:href="#glyph0-1" x="83.953125" y="98.173828"/>
</g>
<path style="fill:none;stroke-width:1.2;stroke-linecap:butt;stroke-linejoin:miter;stroke:rgb(0%,0%,0%);stroke-opacity:1;stroke-miterlimit:10;" d="M 96.550781 122.019531 L 76.117188 142.589844 "/>
<path style="fill:none;stroke-width:1.2;stroke-linecap:butt;stroke-linejoin:miter;stroke:rgb(0%,0%,0%);stroke-opacity:1;stroke-miterlimit:10;" d="M 76.117188 142.589844 L 79.917969 156.582031 "/>
<path style="fill:none;stroke-width:1.2;stroke-linecap:butt;stroke-linejoin:miter;stroke:rgb(0%,0%,100%);stroke-opacity:1;stroke-miterlimit:10;" d="M 79.917969 156.582031 L 83.71875 170.574219 "/>
<path style="fill:none;stroke-width:1.2;stroke-linecap:butt;stroke-linejoin:miter;stroke:rgb(0%,0%,100%);stroke-opacity:1;stroke-miterlimit:10;" d="M 83.71875 170.574219 L 73.5 180.859375 "/>
<path style="fill:none;stroke-width:1.2;stroke-linecap:butt;stroke-linejoin:miter;stroke:rgb(0%,0%,0%);stroke-opacity:1;stroke-miterlimit:10;" d="M 73.5 180.859375 L 63.28125 191.144531 "/>
<path style="fill:none;stroke-width:1.2;stroke-linecap:butt;stroke-linejoin:miter;stroke:rgb(0%,0%,0%);stroke-opacity:1;stroke-miterlimit:10;" d="M 111.75 177.980469 L 97.734375 174.277344 "/>
<path style="fill:none;stroke-width:1.2;stroke-linecap:butt;stroke-linejoin:miter;stroke:rgb(0%,0%,100%);stroke-opacity:1;stroke-miterlimit:10;" d="M 97.734375 174.277344 L 83.71875 170.574219 "/>
<path style=" stroke:none;fill-rule:nonzero;fill:rgb(100%,100%,100%);fill-opacity:1;" d="M 79.71875 163.574219 L 88.71875 163.574219 L 88.71875 177.574219 L 79.71875 177.574219 Z M 79.71875 163.574219 "/>
<g style="fill:rgb(0%,0%,100%);fill-opacity:1;">
  <use xlink:href="#glyph0-2" x="79.71875" y="174.712891"/>
</g>
<path style="fill:none;stroke-width:1.2;stroke-linecap:butt;stroke-linejoin:miter;stroke:rgb(0%,0%,0%);stroke-opacity:1;stroke-miterlimit:10;" d="M 64.15625 187.847656 L 50.136719 184.140625 "/>
<path style="fill:none;stroke-width:1.2;stroke-linecap:butt;stroke-linejoin:miter;stroke:rgb(100%,0%,0%);stroke-opacity:1;stroke-miterlimit:10;" d="M 50.136719 184.140625 L 36.121094 180.4375 "/>
<path style="fill:none;stroke-width:1.2;stroke-linecap:butt;stroke-linejoin:miter;stroke:rgb(0%,0%,0%);stroke-opacity:1;stroke-miterlimit:10;" d="M 62.410156 194.441406 L 48.394531 190.738281 "/>
<path style="fill:none;stroke-width:1.2;stroke-linecap:butt;stroke-linejoin:miter;stroke:rgb(100%,0%,0%);stroke-opacity:1;stroke-miterlimit:10;" d="M 48.394531 190.738281 L 34.378906 187.03125 "/>
<path style="fill:none;stroke-width:1.2;stroke-linecap:butt;stroke-linejoin:miter;stroke:rgb(0%,0%,0%);stroke-opacity:1;stroke-miterlimit:10;" d="M 63.28125 191.144531 L 70.882812 219.128906 "/>
<path style=" stroke:none;fill-rule:nonzero;fill:rgb(100%,100%,100%);fill-opacity:1;" d="M 25.25 176.734375 L 35.25 176.734375 L 35.25 190.734375 L 25.25 190.734375 Z M 25.25 176.734375 "/>
<g style="fill:rgb(100%,0%,0%);fill-opacity:1;">
  <use xlink:href="#glyph0-1" x="25.25" y="187.873047"/>
</g>
<path style="fill:none;stroke-width:1.2;stroke-linecap:butt;stroke-linejoin:miter;stroke:rgb(0%,0%,0%);stroke-opacity:1;stroke-miterlimit:10;" d="M 70.882812 219.128906 L 84.898438 222.832031 "/>
<path style="fill:none;stroke-width:1.2;stroke-linecap:butt;stroke-linejoin:miter;stroke:rgb(0%,0%,100%);stroke-opacity:1;stroke-miterlimit:10;" d="M 84.898438 222.832031 L 98.914062 226.539062 "/>
<path style="fill:none;stroke-width:1.2;stroke-linecap:butt;stroke-linejoin:miter;stroke:rgb(0%,0%,0%);stroke-opacity:1;stroke-miterlimit:10;" d="M 75.429688 213.273438 L 86.644531 216.234375 "/>
<path style="fill:none;stroke-width:1.2;stroke-linecap:butt;stroke-linejoin:miter;stroke:rgb(0%,0%,100%);stroke-opacity:1;stroke-miterlimit:10;" d="M 86.644531 216.234375 L 97.855469 219.199219 "/>
<path style="fill:none;stroke-width:1.2;stroke-linecap:butt;stroke-linejoin:miter;stroke:rgb(0%,0%,100%);stroke-opacity:1;stroke-miterlimit:10;" d="M 98.914062 226.539062 L 109.132812 216.25 "/>
<path style="fill:none;stroke-width:1.2;stroke-linecap:butt;stroke-linejoin:miter;stroke:rgb(0%,0%,0%);stroke-opacity:1;stroke-miterlimit:10;" d="M 109.132812 216.25 L 119.347656 205.964844 "/>
<path style=" stroke:none;fill-rule:nonzero;fill:rgb(100%,100%,100%);fill-opacity:1;" d="M 94.914062 219.539062 L 103.914062 219.539062 L 103.914062 233.539062 L 94.914062 233.539062 Z M 94.914062 219.539062 "/>
<g style="fill:rgb(0%,0%,100%);fill-opacity:1;">
  <use xlink:href="#glyph0-2" x="94.914062" y="230.677734"/>
</g>
<path style="fill:none;stroke-width:1.2;stroke-linecap:butt;stroke-linejoin:miter;stroke:rgb(0%,0%,0%);stroke-opacity:1;stroke-miterlimit:10;" d="M 119.347656 205.964844 L 147.382812 213.375 "/>
<path style="fill:none;stroke-width:1.2;stroke-linecap:butt;stroke-linejoin:miter;stroke:rgb(0%,0%,0%);stroke-opacity:1;stroke-miterlimit:10;" d="M 123.894531 200.109375 L 146.324219 206.039062 "/>
<path style="fill:none;stroke-width:1.2;stroke-linecap:butt;stroke-linejoin:miter;stroke:rgb(0%,0%,0%);stroke-opacity:1;stroke-miterlimit:10;" d="M 111.75 177.980469 L 119.347656 205.964844 "/>
<path style="fill:none;stroke-width:1.2;stroke-linecap:butt;stroke-linejoin:miter;stroke:rgb(0%,0%,0%);stroke-opacity:1;stroke-miterlimit:10;" d="M 147.382812 213.375 L 157.597656 203.089844 "/>
<path style="fill:none;stroke-width:1.2;stroke-linecap:butt;stroke-linejoin:miter;stroke:rgb(0%,0%,100%);stroke-opacity:1;stroke-miterlimit:10;" d="M 157.597656 203.089844 L 167.816406 192.800781 "/>
<path style="fill:none;stroke-width:1.2;stroke-linecap:butt;stroke-linejoin:miter;stroke:rgb(0%,0%,100%);stroke-opacity:1;stroke-miterlimit:10;" d="M 167.816406 192.800781 L 164.015625 178.8125 "/>
<path style="fill:none;stroke-width:1.2;stroke-linecap:butt;stroke-linejoin:miter;stroke:rgb(0%,0%,0%);stroke-opacity:1;stroke-miterlimit:10;" d="M 164.015625 178.8125 L 160.21875 164.820312 "/>
<path style="fill:none;stroke-width:1.2;stroke-linecap:butt;stroke-linejoin:miter;stroke:rgb(0%,0%,100%);stroke-opacity:1;stroke-miterlimit:10;" d="M 160.472656 191.792969 L 157.433594 180.597656 "/>
<path style="fill:none;stroke-width:1.2;stroke-linecap:butt;stroke-linejoin:miter;stroke:rgb(0%,0%,0%);stroke-opacity:1;stroke-miterlimit:10;" d="M 157.433594 180.597656 L 154.394531 169.40625 "/>
<path style=" stroke:none;fill-rule:nonzero;fill:rgb(100%,100%,100%);fill-opacity:1;" d="M 163.816406 185.800781 L 172.816406 185.800781 L 172.816406 199.800781 L 163.816406 199.800781 Z M 163.816406 185.800781 "/>
<g style="fill:rgb(0%,0%,100%);fill-opacity:1;">
  <use xlink:href="#glyph0-2" x="163.816406" y="196.939453"/>
</g>
<path style="fill:none;stroke-width:1.2;stroke-linecap:butt;stroke-linejoin:miter;stroke:rgb(0%,0%,0%);stroke-opacity:1;stroke-miterlimit:10;" d="M 160.21875 164.820312 L 146.199219 161.113281 "/>
<path style="fill:none;stroke-width:1.2;stroke-linecap:butt;stroke-linejoin:miter;stroke:rgb(0%,0%,100%);stroke-opacity:1;stroke-miterlimit:10;" d="M 146.199219 161.113281 L 132.183594 157.410156 "/>
<path style="fill:none;stroke-width:1.2;stroke-linecap:butt;stroke-linejoin:miter;stroke:rgb(0%,0%,0%);stroke-opacity:1;stroke-miterlimit:10;" d="M 160.21875 164.820312 L 170.433594 154.535156 "/>
<path style="fill:none;stroke-width:1.2;stroke-linecap:butt;stroke-linejoin:miter;stroke:rgb(100%,0%,0%);stroke-opacity:1;stroke-miterlimit:10;" d="M 170.433594 154.535156 L 180.652344 144.246094 "/>
<path style="fill:none;stroke-width:1.2;stroke-linecap:butt;stroke-linejoin:miter;stroke:rgb(0%,0%,100%);stroke-opacity:1;stroke-miterlimit:10;" d="M 132.183594 157.410156 L 121.96875 167.695312 "/>
<path style="fill:none;stroke-width:1.2;stroke-linecap:butt;stroke-linejoin:miter;stroke:rgb(0%,0%,0%);stroke-opacity:1;stroke-miterlimit:10;" d="M 121.96875 167.695312 L 111.75 177.980469 "/>
<path style="fill:none;stroke-width:1.2;stroke-linecap:butt;stroke-linejoin:miter;stroke:rgb(0%,0%,100%);stroke-opacity:1;stroke-miterlimit:10;" d="M 134.980469 164.273438 L 126.808594 172.503906 "/>
<path style="fill:none;stroke-width:1.2;stroke-linecap:butt;stroke-linejoin:miter;stroke:rgb(0%,0%,0%);stroke-opacity:1;stroke-miterlimit:10;" d="M 126.808594 172.503906 L 118.632812 180.734375 "/>
<path style=" stroke:none;fill-rule:nonzero;fill:rgb(100%,100%,100%);fill-opacity:1;" d="M 128.183594 150.410156 L 137.183594 150.410156 L 137.183594 164.410156 L 128.183594 164.410156 Z M 128.183594 150.410156 "/>
<g style="fill:rgb(0%,0%,100%);fill-opacity:1;">
  <use xlink:href="#glyph0-2" x="128.183594" y="161.548828"/>
</g>
<path style="fill:none;stroke-width:1.2;stroke-linecap:butt;stroke-linejoin:miter;stroke:rgb(100%,0%,0%);stroke-opacity:1;stroke-miterlimit:10;" d="M 180.652344 144.246094 L 194.667969 147.953125 "/>
<path style="fill:none;stroke-width:1.2;stroke-linecap:butt;stroke-linejoin:miter;stroke:rgb(0%,0%,0%);stroke-opacity:1;stroke-miterlimit:10;" d="M 194.667969 147.953125 L 208.683594 151.65625 "/>
<path style=" stroke:none;fill-rule:nonzero;fill:rgb(100%,100%,100%);fill-opacity:1;" d="M 175.652344 137.246094 L 185.652344 137.246094 L 185.652344 151.246094 L 175.652344 151.246094 Z M 175.652344 137.246094 "/>
<g style="fill:rgb(100%,0%,0%);fill-opacity:1;">
  <use xlink:href="#glyph0-1" x="175.652344" y="148.384766"/>
</g>
<path style="fill:none;stroke-width:1.2;stroke-linecap:butt;stroke-linejoin:miter;stroke:rgb(0%,0%,0%);stroke-opacity:1;stroke-miterlimit:10;" d="M 208.683594 151.65625 L 216.28125 179.640625 "/>
<path style="fill:none;stroke-width:1.2;stroke-linecap:butt;stroke-linejoin:miter;stroke:rgb(0%,0%,0%);stroke-opacity:1;stroke-miterlimit:10;" d="M 216.027344 152.667969 L 222.105469 175.054688 "/>
<path style="fill:none;stroke-width:1.2;stroke-linecap:butt;stroke-linejoin:miter;stroke:rgb(0%,0%,0%);stroke-opacity:1;stroke-miterlimit:10;" d="M 229.117188 131.085938 L 208.683594 151.65625 "/>
<path style="fill:none;stroke-width:1.2;stroke-linecap:butt;stroke-linejoin:miter;stroke:rgb(0%,0%,0%);stroke-opacity:1;stroke-miterlimit:10;" d="M 216.28125 179.640625 L 244.316406 187.050781 "/>
<path style="fill:none;stroke-width:1.2;stroke-linecap:butt;stroke-linejoin:miter;stroke:rgb(0%,0%,0%);stroke-opacity:1;stroke-miterlimit:10;" d="M 244.316406 187.050781 L 264.75 166.476562 "/>
<path style="fill:none;stroke-width:1.2;stroke-linecap:butt;stroke-linejoin:miter;stroke:rgb(0%,0%,0%);stroke-opacity:1;stroke-miterlimit:10;" d="M 241.519531 180.183594 L 257.867188 163.726562 "/>
<path style="fill:none;stroke-width:1.2;stroke-linecap:butt;stroke-linejoin:miter;stroke:rgb(0%,0%,0%);stroke-opacity:1;stroke-miterlimit:10;" d="M 244.316406 187.050781 L 248.117188 201.039062 "/>
<path style="fill:none;stroke-width:1.2;stroke-linecap:butt;stroke-linejoin:miter;stroke:rgb(0%,80%,0%);stroke-opacity:1;stroke-miterlimit:10;" d="M 248.117188 201.039062 L 251.914062 215.03125 "/>
<path style="fill:none;stroke-width:1.2;stroke-linecap:butt;stroke-linejoin:miter;stroke:rgb(0%,0%,0%);stroke-opacity:1;stroke-miterlimit:10;" d="M 264.75 166.476562 L 257.152344 138.496094 "/>
<path style="fill:none;stroke-width:1.2;stroke-linecap:butt;stroke-linejoin:miter;stroke:rgb(0%,0%,0%);stroke-opacity:1;stroke-miterlimit:10;" d="M 257.152344 138.496094 L 229.117188 131.085938 "/>
<path style="fill:none;stroke-width:1.2;stroke-linecap:butt;stroke-linejoin:miter;stroke:rgb(0%,0%,0%);stroke-opacity:1;stroke-miterlimit:10;" d="M 252.605469 144.347656 L 230.175781 138.421875 "/>
<path style=" stroke:none;fill-rule:nonzero;fill:rgb(100%,100%,100%);fill-opacity:1;" d="M 245.914062 208.03125 L 257.914062 208.03125 L 257.914062 222.03125 L 245.914062 222.03125 Z M 245.914062 208.03125 "/>
<g style="fill:rgb(0%,80%,0%);fill-opacity:1;">
  <use xlink:href="#glyph0-3" x="245.914062" y="219.169922"/>
  <use xlink:href="#glyph0-4" x="254.292969" y="219.169922"/>
</g>
</g>
</svg>

<svg xmlns="http://www.w3.org/2000/svg" xmlns:xlink="http://www.w3.org/1999/xlink" width="300pt" height="300pt" viewBox="0 0 300 300"><defs><symbol overflow="visible"><path d="M.594 2.125V-8.47h6V2.126zm.672-.672h4.671V-7.78h-4.67zm0 0"/></symbol><symbol overflow="visible" id="a"><path d="M4.734-7.953c-.867 0-1.554.324-2.062.97-.5.635-.75 1.51-.75 2.624 0 1.094.25 1.965.75 2.61.508.637 1.195.953 2.062.953.852 0 1.532-.316 2.032-.953.507-.645.765-1.516.765-2.61 0-1.113-.257-1.988-.764-2.624-.5-.645-1.18-.97-2.032-.97zm0-.953c1.22 0 2.192.414 2.922 1.234.74.824 1.11 1.93 1.11 3.313 0 1.376-.37 2.477-1.11 3.298C6.926-.24 5.953.17 4.734.17c-1.23 0-2.214-.41-2.953-1.234C1.04-1.882.673-2.984.673-4.36c0-1.382.367-2.488 1.11-3.312.738-.82 1.722-1.234 2.952-1.234zm0 0"/></symbol><symbol overflow="visible" id="b"><path d="M1.172-8.75h1.594l3.89 7.313V-8.75h1.14V0H6.204L2.328-7.313V0H1.172zm0 0"/></symbol><symbol overflow="visible" id="c"><path d="M7.734-8.078v1.25c-.406-.375-.836-.65-1.28-.828-.45-.188-.93-.282-1.438-.282-1 0-1.766.31-2.297.922-.533.618-.798 1.5-.798 2.657 0 1.15.266 2.028.797 2.64.53.618 1.296.923 2.296.923.507 0 .988-.094 1.437-.28.445-.19.875-.462 1.28-.83V-.67c-.417.28-.858.496-1.327.64-.46.134-.945.204-1.453.204-1.336 0-2.383-.406-3.14-1.22-.762-.81-1.14-1.913-1.14-3.31 0-1.408.378-2.517 1.14-3.33.757-.812 1.804-1.218 3.14-1.218.52 0 1.008.074 1.47.22.468.135.905.338 1.31.608zm0 0"/></symbol><symbol overflow="visible" id="d"><path d="M1.125-9.125h1.078V0H1.125zm0 0"/></symbol></defs><g><path fill="#fff" d="M0 0h300v300H0z"/><path d="M109.387 73.46l-10.22 10.29" stroke-width="1.2" stroke="#000" stroke-miterlimit="10" fill="none"/><path d="M99.168 83.75L88.953 94.035M88.953 94.035l3.797 13.992" stroke-width="1.2" stroke="#f00" stroke-miterlimit="10" fill="none"/><path d="M92.75 108.027l3.8 13.993" stroke-width="1.2" stroke="#000" stroke-miterlimit="10" fill="none"/><path d="M83.953 87.035h10v14h-10zm0 0" fill="#fff"/><use xlink:href="#a" x="83.953" y="98.174" fill="#f00"/><path d="M96.55 122.02l-20.433 20.57M76.117 142.59l3.8 13.992" stroke-width="1.2" stroke="#000" stroke-miterlimit="10" fill="none"/><path d="M79.918 156.582l3.8 13.992M83.72 170.574L73.5 180.86" stroke-width="1.2" stroke="#00f" stroke-miterlimit="10" fill="none"/><path d="M73.5 180.86l-10.22 10.285M111.75 177.98l-14.016-3.703" stroke-width="1.2" stroke="#000" stroke-miterlimit="10" fill="none"/><path d="M97.734 174.277l-14.015-3.703" stroke-width="1.2" stroke="#00f" stroke-miterlimit="10" fill="none"/><path d="M79.72 163.574h9v14h-9zm0 0" fill="#fff"/><use xlink:href="#b" x="79.719" y="174.713" fill="#00f"/><path d="M64.156 187.848l-14.02-3.707" stroke-width="1.2" stroke="#000" stroke-miterlimit="10" fill="none"/><path d="M50.137 184.14L36.12 180.44" stroke-width="1.2" stroke="#f00" stroke-miterlimit="10" fill="none"/><path d="M62.41 194.44l-14.015-3.702" stroke-width="1.2" stroke="#000" stroke-miterlimit="10" fill="none"/><path d="M48.395 190.738L34.38 187.03" stroke-width="1.2" stroke="#f00" stroke-miterlimit="10" fill="none"/><path d="M63.28 191.145l7.603 27.984" stroke-width="1.2" stroke="#000" stroke-miterlimit="10" fill="none"/><path d="M25.25 176.734h10v14h-10zm0 0" fill="#fff"/><use xlink:href="#a" x="25.25" y="187.873" fill="#f00"/><path d="M70.883 219.13l14.015 3.702" stroke-width="1.2" stroke="#000" stroke-miterlimit="10" fill="none"/><path d="M84.898 222.832l14.016 3.707" stroke-width="1.2" stroke="#00f" stroke-miterlimit="10" fill="none"/><path d="M75.43 213.273l11.215 2.96" stroke-width="1.2" stroke="#000" stroke-miterlimit="10" fill="none"/><path d="M86.645 216.234l11.21 2.965M98.914 226.54l10.22-10.29" stroke-width="1.2" stroke="#00f" stroke-miterlimit="10" fill="none"/><path d="M109.133 216.25l10.215-10.285" stroke-width="1.2" stroke="#000" stroke-miterlimit="10" fill="none"/><path d="M94.914 219.54h9v14h-9zm0 0" fill="#fff"/><use xlink:href="#b" x="94.914" y="230.678" fill="#00f"/><path d="M119.348 205.965l28.035 7.41M123.895 200.11l22.43 5.93M111.75 177.98l7.598 27.985M147.383 213.375l10.215-10.285" stroke-width="1.2" stroke="#000" stroke-miterlimit="10" fill="none"/><path d="M157.598 203.09l10.218-10.29M167.816 192.8l-3.8-13.988" stroke-width="1.2" stroke="#00f" stroke-miterlimit="10" fill="none"/><path d="M164.016 178.813l-3.797-13.993" stroke-width="1.2" stroke="#000" stroke-miterlimit="10" fill="none"/><path d="M160.473 191.793l-3.04-11.195" stroke-width="1.2" stroke="#00f" stroke-miterlimit="10" fill="none"/><path d="M157.434 180.598l-3.04-11.192" stroke-width="1.2" stroke="#000" stroke-miterlimit="10" fill="none"/><path d="M163.816 185.8h9v14h-9zm0 0" fill="#fff"/><use xlink:href="#b" x="163.816" y="196.939" fill="#00f"/><path d="M160.22 164.82l-14.02-3.707" stroke-width="1.2" stroke="#000" stroke-miterlimit="10" fill="none"/><path d="M146.2 161.113l-14.016-3.703" stroke-width="1.2" stroke="#00f" stroke-miterlimit="10" fill="none"/><path d="M160.22 164.82l10.214-10.285" stroke-width="1.2" stroke="#000" stroke-miterlimit="10" fill="none"/><path d="M170.434 154.535l10.218-10.29" stroke-width="1.2" stroke="#f00" stroke-miterlimit="10" fill="none"/><path d="M132.184 157.41l-10.215 10.285" stroke-width="1.2" stroke="#00f" stroke-miterlimit="10" fill="none"/><path d="M121.97 167.695l-10.22 10.285" stroke-width="1.2" stroke="#000" stroke-miterlimit="10" fill="none"/><path d="M134.98 164.273l-8.17 8.23" stroke-width="1.2" stroke="#00f" stroke-miterlimit="10" fill="none"/><path d="M126.81 172.504l-8.177 8.23" stroke-width="1.2" stroke="#000" stroke-miterlimit="10" fill="none"/><path d="M128.184 150.41h9v14h-9zm0 0" fill="#fff"/><use xlink:href="#b" x="128.184" y="161.549" fill="#00f"/><path d="M180.652 144.246l14.016 3.707" stroke-width="1.2" stroke="#f00" stroke-miterlimit="10" fill="none"/><path d="M194.668 147.953l14.016 3.703" stroke-width="1.2" stroke="#000" stroke-miterlimit="10" fill="none"/><path d="M175.652 137.246h10v14h-10zm0 0" fill="#fff"/><use xlink:href="#a" x="175.652" y="148.385" fill="#f00"/><path d="M208.684 151.656l7.597 27.985M216.027 152.668l6.078 22.387M229.117 131.086l-20.433 20.57M216.28 179.64l28.036 7.41M244.316 187.05l20.434-20.573M241.52 180.184l16.347-16.457M244.316 187.05l3.8 13.99" stroke-width="1.2" stroke="#000" stroke-miterlimit="10" fill="none"/><path d="M248.117 201.04l3.797 13.99" stroke-width="1.2" stroke="#0c0" stroke-miterlimit="10" fill="none"/><path d="M264.75 166.477l-7.598-27.98M257.152 138.496l-28.035-7.41M252.605 144.348l-22.43-5.926" stroke-width="1.2" stroke="#000" stroke-miterlimit="10" fill="none"/><path d="M245.914 208.03h12v14h-12zm0 0" fill="#fff"/><g fill="#0c0"><use xlink:href="#c" x="245.914" y="219.17"/><use xlink:href="#d" x="254.293" y="219.17"/></g></g></svg>
